app/assets/images/heroicons/mini/arrow-turn-down-left.svg

<svg width="20" height="20" viewBox="0 0 20 20" fill="none" xmlns="http://www.w3.org/2000/svg">
<path fill-rule="evenodd" clip-rule="evenodd" d="M16.25 3C15.8358 3 15.5 3.33579 15.5 3.75V11.25H4.56066L6.53033 9.28033C6.82322 8.98744 6.82322 8.51256 6.53033 8.21967C6.23744 7.92678 5.76256 7.92678 5.46967 8.21967L2.21967 11.4697C1.92678 11.7626 1.92678 12.2374 2.21967 12.5303L5.46967 15.7803C5.76256 16.0732 6.23744 16.0732 6.53033 15.7803C6.82322 15.4874 6.82322 15.0126 6.53033 14.7197L4.56066 12.75H16.25C16.6642 12.75 17 12.4142 17 12V3.75C17 3.33579 16.6642 3 16.25 3Z" fill="black"/>
</svg>

<svg xmlns="http://www.w3.org/2000/svg" viewBox="0 0 20 20" fill="currentColor" aria-hidden="true" data-slot="icon">
  <path fill-rule="evenodd" d="M16.25 3a.75.75 0 0 0-.75.75v7.5H4.56l1.97-1.97a.75.75 0 0 0-1.06-1.06l-3.25 3.25a.75.75 0 0 0 0 1.06l3.25 3.25a.75.75 0 0 0 1.06-1.06l-1.97-1.97h11.69A.75.75 0 0 0 17 12V3.75a.75.75 0 0 0-.75-.75Z" clip-rule="evenodd"/>
</svg>
